src/telerik-icons/solid/table-row-groups.svg

<?xml version="1.0" encoding="utf-8"?>
<svg xmlns="http://www.w3.org/2000/svg" width="512" height="512" viewBox="0 0 512 512">
  <path d="M32 32v416h416V32H32zm256 32v96h-96V64h96zm-64 128h64l96 96h-64l-96-96zm32 96h-64l-96-96h64l96 96zM64 64h96v96H64V64zm0 160 64 64H64v-64zm0 192v-96h96v96H64zm128 0v-96h96v96h-96zm224 0h-96v-96h96v96zm0-160-64-64h64v64zm0-96h-96V64h96v96z"/>
</svg>

<?xml version="1.0" encoding="utf-8"?>
<!-- Generator: Adobe Illustrator 24.2.0, SVG Export Plug-In . SVG Version: 6.00 Build 0)  -->
<svg xmlns="http://www.w3.org/2000/svg" width="512" height="512" viewBox="0 0 512 512">
<path id="Table_row_groups" d="M32,32v416h416V32H32z M288,64v96h-96V64H288z M224,192h64l96,96h-64L224,192z M256,288h-64l-96-96
	h64L256,288z M64,64h96v96H64V64z M64,224l64,64H64V224z M64,416v-96h96v96H64z M192,416v-96h96v96H192z M416,416h-96v-96h96V416z
	 M416,256l-64-64h64V256z M416,160h-96V64h96V160z" />
</svg>
